X:2594
T:Hills of Coore, The
O:england
M:4/4
L:1/8
C:Junior Crehan
S:Tony Crehan
R:Reel
A:West Clare
B:"Junior Crehan, This is your Musical Life"
H:pamphlet prepared for Junior's birthday
K:G
EAAB AGED|cdeg {a}ge d2|eaaf gedB|(3cBA BG AGED|
EAAB AGED|cdeg {a}ge d2|(3efg af gedB|1DEGB A2 AG:|2DEGB A4||
a2 ab agab|g2 ga gedg|ea a2 aged|(3cBA BG AGED|
EAAB AGED|cdef ge d2|(3efg af gedB|DEGB A4||
